X: 2120
T: Atlantic Bridge
R: jig
M: 6/8
K: Aminor
eAA BAA|cBA Aed|eAA ed(e|(e6)|e)BB Bcd|ecA ecA|dBG Aec|dBG A3:|
Aed ecA|fed edc|BAB GBd|dcB AGE|dBG g^fg|aaa ged|c3 Bgd|BAG A z2|
Aed ecA|fed edc|BAB GBd|dcB AGE|dBG g^fg|age cAc|BAG Bgd|BAG A z2||

